X:72
T:Frailach
N:From kevin Burke, â€œOpen House,â€ GLCD 1122
N:Transcribed by Bruce Thomson
L:1/4
M:4/4
K:Dm
|:â€Dmâ€A,DFD|DFAF|â€Câ€G2GF|GAF2|â€Fâ€FAcA|FAcA|â€Câ€G2GF|
GAF2|â€Gmâ€FGGF|â€Câ€FEE_E|â€Dmâ€D4|D4|â€Gmâ€FGGF|â€Câ€FEE_E|
[1â€³ Dmâ€D4|D4:|[2â€³ Dmâ€D4|A,DFA|]|:â€Dmâ€(d4|d2)cB|(A4|A4)|dAdA|
d2cB|(A4|A4)|(d4|d2)c2|â€Gmâ€(e4|e4)|â€Dmâ€dAdA|d2cB|
(A4|A4)|â€Fâ€FGAB|ABAB|ABAB|A/B/AG2|â€Gmâ€GDDG|GDDG|
GDGA|G/A/GF2|FGGF|â€Câ€FEE_E|â€Dmâ€D4|D4|
â€œGmâ€FGGF|â€Câ€FEE_E|[1â€³Dmâ€D4|A,DFA:|[2â€ Dmâ€D4|D4|]

